assets/icons/star_outlined.svg

<svg fill="none" height="20" viewBox="0 0 20 20" width="20" xmlns="http://www.w3.org/2000/svg"><path clip-rule="evenodd" d="m10 .3125c.175-.000112.3466.048768.4953.141109.1486.092341.2685.224456.346.381391l2.3525 4.76875 5.2625.765c.1731.02514.3357.09819.4693.2109.1338.1127.2334.26057.2874.42689.0541.16632.0606.34446.0188.51427s-.1303.32454-.2555.44669l-3.8075 3.7125.8987 5.24c.0296.1724.0105.3496-.0554.5117-.0658.1622-.1757.3025-.3172.4054s-.309.1641-.4835.1768c-.1745.0126-.349-.0238-.5039-.1052l-4.7075-2.475-4.70748 2.475c-.15476.0813-.32916.1177-.50351.105-.17434-.0126-.34169-.0737-.48314-.1763-.14144-.1028-.25136-.243-.31732-.4049-.06598-.1619-.08539-.3389-.05603-.5113l.9-5.2425-3.81-3.7112c-.12554-.1221-.214374-.27691-.256432-.44691-.04206-.17-.035663-.34838.018465-.51493s.153823-.31461.287787-.4274c.13397-.11279.29684-.1858.47018-.21076l5.2625-.76375 2.35375-4.76875c.07748-.156935.19734-.28905.34601-.381391.14868-.092341.32023-.141221.49522-.141109zm0 3.05625-1.73123 3.50625c-.06723.13612-.16651.25389-.28931.34316-.12281.08928-.26546.14739-.41569.16934l-3.87125.5625 2.8 2.73c.10894.1061.19045.2371.23749.3817.04703.1446.0582.2984.03251.4483l-.66 3.855 3.46125-1.82c.13454-.0708.28426-.1076.43623-.1076.152 0 .3017.0368.4363.1076l3.4625 1.82-.6625-3.855c-.0257-.1499-.0145-.3037.0325-.4483.0471-.1446.1286-.2756.2375-.3817l2.8-2.72875-3.87-.5625c-.1503-.02195-.2929-.08006-.4157-.16934-.1228-.08927-.2221-.20704-.2893-.34316l-1.7313-3.50875z" fill="#f0b90a" fill-rule="evenodd"/></svg>

<svg width="20" height="20" viewBox="0 0 20 20" fill="none" xmlns="http://www.w3.org/2000/svg">
<path fill-rule="evenodd" clip-rule="evenodd" d="M10 0.3125C10.175 0.312388 10.3466 0.361268 10.4953 0.453609C10.6439 0.54595 10.7638 0.678065 10.8413 0.835L13.1938 5.60375L18.4563 6.36875C18.6294 6.39389 18.792 6.46694 18.9256 6.57965C19.0594 6.69235 19.159 6.84022 19.213 7.00654C19.2671 7.17286 19.2736 7.351 19.2318 7.52081C19.19 7.69062 19.1015 7.84535 18.9763 7.9675L15.1688 11.68L16.0675 16.92C16.0971 17.0924 16.078 17.2696 16.0121 17.4317C15.9463 17.5939 15.8364 17.7342 15.6949 17.8371C15.5534 17.94 15.3859 18.0012 15.2114 18.0139C15.0369 18.0265 14.8624 17.9901 14.7075 17.9087L10 15.4337L5.29252 17.9087C5.13776 17.99 4.96336 18.0264 4.78901 18.0137C4.61467 18.0011 4.44732 17.94 4.30587 17.8374C4.16443 17.7346 4.05451 17.5944 3.98855 17.4325C3.92257 17.2706 3.90316 17.0936 3.93252 16.9212L4.83252 11.6787L1.02252 7.9675C0.89698 7.8454 0.808146 7.69059 0.766088 7.52059C0.724028 7.35059 0.730425 7.17221 0.784553 7.00566C0.838681 6.83911 0.938376 6.69105 1.07234 6.57826C1.20631 6.46547 1.36918 6.39246 1.54252 6.3675L6.80502 5.60375L9.15877 0.835C9.23625 0.678065 9.35611 0.54595 9.50478 0.453609C9.65346 0.361268 9.82501 0.312388 10 0.3125ZM10 3.36875L8.26877 6.875C8.20154 7.01112 8.10226 7.12889 7.97946 7.21816C7.85665 7.30744 7.714 7.36555 7.56377 7.3875L3.69252 7.95L6.49252 10.68C6.60146 10.7861 6.68297 10.9171 6.73001 11.0617C6.77704 11.2063 6.78821 11.3601 6.76252 11.51L6.10252 15.365L9.56377 13.545C9.69831 13.4742 9.84803 13.4374 10 13.4374C10.152 13.4374 10.3017 13.4742 10.4363 13.545L13.8988 15.365L13.2363 11.51C13.2106 11.3601 13.2218 11.2063 13.2688 11.0617C13.3159 10.9171 13.3974 10.7861 13.5063 10.68L16.3063 7.95125L12.4363 7.38875C12.286 7.3668 12.1434 7.30869 12.0206 7.21941C11.8978 7.13014 11.7985 7.01237 11.7313 6.87625L10 3.3675V3.36875Z" fill="#F0B90A"/>
</svg>
